SVG_Azure_All/Azure Stack Backup.svg

<?xml version="1.0" encoding="UTF-8" standalone="no"?>
<!-- Generated by Microsoft Visio, SVG Export Azure Stack Backup.svg Page-1 -->

<svg
   xmlns:dc="http://purl.org/dc/elements/1.1/"
   xmlns:cc="http://creativecommons.org/ns#"
   xmlns:rdf="http://www.w3.org/1999/02/22-rdf-syntax-ns#"
   xmlns:svg="http://www.w3.org/2000/svg"
   xmlns="http://www.w3.org/2000/svg"
   xmlns:sodipodi="http://sodipodi.sourceforge.net/DTD/sodipodi-0.dtd"
   xmlns:inkscape="http://www.inkscape.org/namespaces/inkscape"
   width="0.62987506in"
   height="0.78744346in"
   viewBox="0 0 45.350979 56.69607"
   xml:space="preserve"
   class="st7"
   version="1.1"
   id="svg90"
   sodipodi:docname="Azure Stack Backup.svg"
   style="font-size:12px;overflow:visible;color-interpolation-filters:sRGB;fill:none;fill-rule:evenodd;stroke-linecap:square;stroke-miterlimit:3"
   inkscape:version="0.92.5 (2060ec1f9f, 2020-04-08)"><metadata
   id="metadata94"><rdf:RDF><cc:Work
       rdf:about=""><dc:format>image/svg+xml</dc:format><dc:type
         rdf:resource="http://purl.org/dc/dcmitype/StillImage" /></cc:Work></rdf:RDF></metadata><sodipodi:namedview
   pagecolor="#ffffff"
   bordercolor="#666666"
   borderopacity="1"
   objecttolerance="10"
   gridtolerance="10"
   guidetolerance="10"
   inkscape:pageopacity="0"
   inkscape:pageshadow="2"
   inkscape:window-width="640"
   inkscape:window-height="480"
   id="namedview92"
   showgrid="false"
   inkscape:zoom="1.8365233"
   inkscape:cx="30.236577"
   inkscape:cy="18.900351"
   inkscape:window-x="0"
   inkscape:window-y="0"
   inkscape:window-maximized="0"
   inkscape:current-layer="svg90" />
	<style
   type="text/css"
   id="style2">
	<![CDATA[
		.st1 {fill:#198ab3;stroke:none;stroke-linecap:butt;stroke-width:0.75}
		.st2 {fill:url(#grad0-9);stroke:none;stroke-linecap:butt;stroke-width:0.75}
		.st3 {fill:#003067;stroke:none;stroke-linecap:butt;stroke-width:0.75}
		.st4 {fill:#50e6ff;stroke:none;stroke-linecap:butt;stroke-width:0.75}
		.st5 {fill:url(#grad0-21);stroke:none;stroke-linecap:butt;stroke-width:0.75}
		.st6 {fill:#e6e6e6;stroke:none;stroke-linecap:butt;stroke-width:0.75}
		.st7 {fill:none;fill-rule:evenodd;font-size:12px;overflow:visible;stroke-linecap:square;stroke-miterlimit:3}
	]]>
	</style>

	<defs
   id="Patterns_And_Gradients">
		<linearGradient
   id="grad0-9"
   x1="-0.00043387837"
   y1="29.539059"
   x2="41.140364"
   y2="29.539059"
   gradientTransform="scale(0.73334309,1.3636182)"
   gradientUnits="userSpaceOnUse">
			<stop
   offset="0"
   stop-color="#949494"
   stop-opacity="1"
   id="stop4" />
			<stop
   offset="0.53"
   stop-color="#a2a2a2"
   stop-opacity="1"
   id="stop6" />
			<stop
   offset="1"
   stop-color="#b3b3b3"
   stop-opacity="1"
   id="stop8" />
		</linearGradient>
		<linearGradient
   id="grad0-21"
   x1="0"
   y1="64.219807"
   x2="21.697808"
   y2="64.219807"
   gradientTransform="scale(0.89144651,1.1217723)"
   gradientUnits="userSpaceOnUse">
			<stop
   offset="0"
   stop-color="#005ba1"
   stop-opacity="1"
   id="stop11" />
			<stop
   offset="0.07"
   stop-color="#0060a9"
   stop-opacity="1"
   id="stop13" />
			<stop
   offset="0.36"
   stop-color="#0071c8"
   stop-opacity="1"
   id="stop15" />
			<stop
   offset="0.52"
   stop-color="#0078d4"
   stop-opacity="1"
   id="stop17" />
			<stop
   offset="0.64"
   stop-color="#0074cd"
   stop-opacity="1"
   id="stop19" />
			<stop
   offset="0.82"
   stop-color="#006abb"
   stop-opacity="1"
   id="stop21" />
			<stop
   offset="1"
   stop-color="#005ba1"
   stop-opacity="1"
   id="stop23" />
		</linearGradient>
	</defs>
	<g
   id="g88"
   transform="translate(-4.5351942,-5.6682286)">
		<title
   id="title27">Page-1</title>
		<g
   id="group7592-1"
   transform="translate(4.53543,-34.0157)">
			<title
   id="title29">Azure Stack Backup</title>
			<g
   id="group7593-2">
				<title
   id="title31">Sheet.7593</title>
				<g
   id="shape7594-3"
   transform="translate(21.9799,-24.3064)">
					<title
   id="title33">Sheet.7594</title>
					<path
   d="M 6.76,94.23 A 20.3731,22.2533 -180 0 0 0,95.29 20.1305,21.9884 -180 0 0 6.76,96.38 19.888,21.7235 -180 0 0 13.52,95.29 20.1002,21.9553 -180 0 0 6.76,94.23 Z"
   class="st1"
   id="path35"
   inkscape:connector-curvature="0"
   style="fill:#198ab3;stroke:none;stroke-width:0.75;stroke-linecap:butt" />
				</g>
				<g
   id="group7595-5"
   transform="translate(0,-0.59607)">
					<title
   id="title38">Sheet.7595</title>
					<g
   id="shape7596-6">
						<title
   id="title40">Sheet.7596</title>
						<path
   d="m 30.17,94.49 a 1.72807,1.88756 0 0 1 -1.76,1.89 H 1.73 A 1.69776,1.85444 0 0 1 0,94.49 V 42.14 a 1.72807,1.88756 0 0 1 1.73,-1.86 h 26.68 a 1.75839,1.92067 0 0 1 1.76,1.89 z"
   class="st2"
   id="path42"
   inkscape:connector-curvature="0"
   style="fill:url(#grad0-9);stroke:none;stroke-width:0.75;stroke-linecap:butt" />
					</g>
					<g
   id="shape7597-10"
   transform="translate(4.48693,-32.817)">
						<title
   id="title45">Sheet.7597</title>
						<path
   d="m 0,92.77 a 3.27424,3.57642 0 0 1 3.21,-3.58 h 14.98 a 3.27424,3.57642 0 0 1 3.27,3.58 3.27424,3.57642 0 0 1 -3.27,3.61 H 3.21 A 3.27424,3.57642 0 0 1 0,92.77 Z"
   class="st3"
   id="path47"
   inkscape:connector-curvature="0"
   style="fill:#003067;stroke:none;stroke-width:0.75;stroke-linecap:butt" />
					</g>
					<g
   id="shape7598-12"
   transform="translate(4.48693,-43.48)">
						<title
   id="title50">Sheet.7598</title>
						<path
   d="m 0,92.8 a 3.27424,3.57642 0 0 1 3.21,-3.57 h 14.98 a 3.27424,3.57642 0 0 1 3.27,3.57 3.27424,3.57642 0 0 1 -3.27,3.58 H 3.21 A 3.27424,3.57642 0 0 1 0,92.8 Z"
   class="st3"
   id="path52"
   inkscape:connector-curvature="0"
   style="fill:#003067;stroke:none;stroke-width:0.75;stroke-linecap:butt" />
					</g>
					<g
   id="shape7599-14"
   transform="translate(5.63897,-44.639)">
						<title
   id="title55">Sheet.7599</title>
						<ellipse
   cx="2.21315"
   cy="93.960602"
   rx="2.21315"
   ry="2.4173999"
   class="st4"
   id="ellipse57"
   style="fill:#50e6ff;stroke:none;stroke-width:0.75;stroke-linecap:butt" />
					</g>
					<g
   id="shape7600-16"
   transform="translate(5.63897,-34.0091)">
						<title
   id="title60">Sheet.7600</title>
						<ellipse
   cx="2.21315"
   cy="93.960602"
   rx="2.21315"
   ry="2.4173999"
   class="st4"
   id="ellipse62"
   style="fill:#50e6ff;stroke:none;stroke-width:0.75;stroke-linecap:butt" />
					</g>
				</g>
				<g
   id="shape7601-18"
   transform="translate(25.8908)">
					<title
   id="title66">Sheet.7601</title>
					<path
   d="M 9.73,75.91 C 4.37,75.91 0,74.16 0,72.04 v 20.5 c 0,2.08 4.31,3.8 9.61,3.84 5.4,0 9.73,-1.72 9.73,-3.84 v -20.5 c 0.12,2.12 -4.21,3.87 -9.61,3.87 z"
   class="st5"
   id="path68"
   inkscape:connector-curvature="0"
   style="fill:url(#grad0-21);stroke:none;stroke-width:0.75;stroke-linecap:butt" />
				</g>
				<g
   id="shape7602-22"
   transform="translate(25.8908,-20.4651)">
					<title
   id="title71">Sheet.7602</title>
					<path
   d="m 19.46,92.5 c 0,2.12 -4.33,3.88 -9.73,3.88 C 4.34,96.38 0,94.62 0,92.5 c 0,-2.12 4.37,-3.84 9.73,-3.84 5.37,0 9.73,1.72 9.73,3.84 z"
   class="st6"
   id="path73"
   inkscape:connector-curvature="0"
   style="fill:#e6e6e6;stroke:none;stroke-width:0.75;stroke-linecap:butt" />
				</g>
				<g
   id="shape7603-24"
   transform="translate(28.1646,-22.1871)">
					<title
   id="title76">Sheet.7603</title>
					<path
   d="m 14.92,93.93 c 0,1.36 -3.34,2.45 -7.46,2.45 C 3.33,96.38 0,95.29 0,93.93 c 0,-1.36 3.33,-2.45 7.46,-2.45 4.12,0 7.46,1.09 7.46,2.45 z"
   class="st4"
   id="path78"
   inkscape:connector-curvature="0"
   style="fill:#50e6ff;stroke:none;stroke-width:0.75;stroke-linecap:butt" />
				</g>
				<g
   id="shape7604-26"
   transform="translate(27.6795,-29.3712)">
					<title
   id="title81">Sheet.7604</title>
					<path
   d="m 9.19,96.28 6.45,-7.06 A 0.333488,0.364265 -180 0 0 15.397463,88.590815 L 11.64,88.59 C 11.64,80.08 7.49,71.61 0,71.61 A 20.2518,22.1208 0 0 1 6.06,88.59 H 2.49 A 0.333488,0.364265 -180 0 0 2.247463,89.219185 L 8.7,96.28 a 0.363805,0.39738 -180 0 0 0.485073,0 z"
   class="st4"
   id="path83"
   inkscape:connector-curvature="0"
   style="fill:#50e6ff;stroke:none;stroke-width:0.75;stroke-linecap:butt" />
				</g>
			</g>
		</g>
	</g>
</svg>

<?xml version="1.0" encoding="UTF-8" standalone="no"?>
<!DOCTYPE svg PUBLIC "-//W3C//DTD SVG 1.1//EN" "http://www.w3.org/Graphics/SVG/1.1/DTD/svg11.dtd">
<!-- Generated by Microsoft Visio, SVG Export Azure Stack Backup.svg Page-1 -->
<svg xmlns="http://www.w3.org/2000/svg" xmlns:xlink="http://www.w3.org/1999/xlink" xmlns:ev="http://www.w3.org/2001/xml-events"
		width="0.755906in" height="1.33858in" viewBox="0 0 54.4252 96.378" xml:space="preserve" color-interpolation-filters="sRGB"
		class="st7">
	<style type="text/css">
	<![CDATA[
		.st1 {fill:#198ab3;stroke:none;stroke-linecap:butt;stroke-width:0.75}
		.st2 {fill:url(#grad0-9);stroke:none;stroke-linecap:butt;stroke-width:0.75}
		.st3 {fill:#003067;stroke:none;stroke-linecap:butt;stroke-width:0.75}
		.st4 {fill:#50e6ff;stroke:none;stroke-linecap:butt;stroke-width:0.75}
		.st5 {fill:url(#grad0-21);stroke:none;stroke-linecap:butt;stroke-width:0.75}
		.st6 {fill:#e6e6e6;stroke:none;stroke-linecap:butt;stroke-width:0.75}
		.st7 {fill:none;fill-rule:evenodd;font-size:12px;overflow:visible;stroke-linecap:square;stroke-miterlimit:3}
	]]>
	</style>

	<defs id="Patterns_And_Gradients">
		<linearGradient id="grad0-9" x1="0" y1="0" x2="1" y2="0" gradientTransform="rotate(-90 0.5 0.5)">
			<stop offset="0" stop-color="#949494" stop-opacity="1"/>
			<stop offset="0.53" stop-color="#a2a2a2" stop-opacity="1"/>
			<stop offset="1" stop-color="#b3b3b3" stop-opacity="1"/>
		</linearGradient>
		<linearGradient id="grad0-21" x1="0" y1="0" x2="1" y2="0" gradientTransform="rotate(0 0.5 0.5)">
			<stop offset="0" stop-color="#005ba1" stop-opacity="1"/>
			<stop offset="0.07" stop-color="#0060a9" stop-opacity="1"/>
			<stop offset="0.36" stop-color="#0071c8" stop-opacity="1"/>
			<stop offset="0.52" stop-color="#0078d4" stop-opacity="1"/>
			<stop offset="0.64" stop-color="#0074cd" stop-opacity="1"/>
			<stop offset="0.82" stop-color="#006abb" stop-opacity="1"/>
			<stop offset="1" stop-color="#005ba1" stop-opacity="1"/>
		</linearGradient>
	</defs>
	<g>
		<title>Page-1</title>
		<g id="group7419-1" transform="translate(4.53543,-34.0157)">
			<title>Azure Stack Backup</title>
			<g id="group7420-2">
				<title>Sheet.7420</title>
				<g id="shape7421-3" transform="translate(21.9799,-24.3064)">
					<title>Sheet.7421</title>
					<path d="M6.76 94.23 A20.3731 22.2533 -180 0 0 0 95.29 A20.1305 21.9884 -180 0 0 6.76 96.38 A19.888 21.7235 -180
								 0 0 13.52 95.29 A20.1002 21.9553 -180 0 0 6.76 94.23 Z" class="st1"/>
				</g>
				<g id="group7422-5" transform="translate(0,-0.59607)">
					<title>Sheet.7422</title>
					<g id="shape7423-6">
						<title>Sheet.7423</title>
						<path d="M30.17 94.49 A1.72807 1.88756 0 0 1 28.41 96.38 L1.73 96.38 A1.69776 1.85444 0 0 1 0 94.49 L0 42.14
									 A1.72807 1.88756 0 0 1 1.73 40.28 L28.41 40.28 A1.75839 1.92067 0 0 1 30.17 42.17 L30.17 94.49
									 Z" class="st2"/>
					</g>
					<g id="shape7424-10" transform="translate(4.48693,-32.817)">
						<title>Sheet.7424</title>
						<path d="M0 92.77 A3.27424 3.57642 0 0 1 3.21 89.19 L18.19 89.19 A3.27424 3.57642 0 0 1 21.46 92.77 A3.27424
									 3.57642 0 0 1 18.19 96.38 L3.21 96.38 A3.27424 3.57642 0 0 1 -0 92.77 Z" class="st3"/>
					</g>
					<g id="shape7425-12" transform="translate(4.48693,-43.48)">
						<title>Sheet.7425</title>
						<path d="M0 92.8 A3.27424 3.57642 0 0 1 3.21 89.23 L18.19 89.23 A3.27424 3.57642 0 0 1 21.46 92.8 A3.27424
									 3.57642 0 0 1 18.19 96.38 L3.21 96.38 A3.27424 3.57642 0 0 1 -0 92.8 Z" class="st3"/>
					</g>
					<g id="shape7426-14" transform="translate(5.63897,-44.639)">
						<title>Sheet.7426</title>
						<ellipse cx="2.21315" cy="93.9606" rx="2.21315" ry="2.4174" class="st4"/>
					</g>
					<g id="shape7427-16" transform="translate(5.63897,-34.0091)">
						<title>Sheet.7427</title>
						<ellipse cx="2.21315" cy="93.9606" rx="2.21315" ry="2.4174" class="st4"/>
					</g>
				</g>
				<g id="shape7428-18" transform="translate(25.8908,1.42109E-14)">
					<title>Sheet.7428</title>
					<path d="M9.73 75.91 C4.37 75.91 0 74.16 0 72.04 L0 92.54 C0 94.62 4.31 96.34 9.61 96.38 C15.01 96.38 19.34 94.66
								 19.34 92.54 L19.34 72.04 C19.46 74.16 15.13 75.91 9.73 75.91 Z" class="st5"/>
				</g>
				<g id="shape7429-22" transform="translate(25.8908,-20.4651)">
					<title>Sheet.7429</title>
					<path d="M19.46 92.5 C19.46 94.62 15.13 96.38 9.73 96.38 C4.34 96.38 0 94.62 0 92.5 C0 90.38 4.37 88.66 9.73
								 88.66 C15.1 88.66 19.46 90.38 19.46 92.5 Z" class="st6"/>
				</g>
				<g id="shape7430-24" transform="translate(28.1646,-22.1871)">
					<title>Sheet.7430</title>
					<path d="M14.92 93.93 C14.92 95.29 11.58 96.38 7.46 96.38 C3.33 96.38 0 95.29 0 93.93 C0 92.57 3.33 91.48 7.46
								 91.48 C11.58 91.48 14.92 92.57 14.92 93.93 Z" class="st4"/>
				</g>
				<g id="shape7431-26" transform="translate(27.6795,-29.3712)">
					<title>Sheet.7431</title>
					<path d="M9.19 96.28 L15.64 89.22 a0.333488 0.364265 -180 0 0 -0.242537 -0.629185 L11.64 88.59 C11.64 80.08 7.49
								 71.61 0 71.61 A20.2518 22.1208 0 0 1 6.06 88.59 L2.49 88.59 a0.333488 0.364265 -180 0 0 -0.242537
								 0.629185 L8.7 96.28 a0.363805 0.39738 -180 0 0 0.485073 0 Z" class="st4"/>
				</g>
			</g>
		</g>
	</g>
</svg>
